lib/src/components/widgets/uploader/components/fileIcons/svgs/Code.svg

<?xml version="1.0" encoding="UTF-8"?>
<svg width="160px" height="210px" viewBox="0 0 160 210" version="1.1" xmlns="http://www.w3.org/2000/svg" xmlns:xlink="http://www.w3.org/1999/xlink">
  <title>Group</title>
  <g id="Page-1" stroke="none" stroke-width="1" fill="none" fill-rule="evenodd">
    <g id="Code" transform="translate(-118.000000, -110.000000)" fill-rule="nonzero">
      <g id="Group" transform="translate(118.000000, 110.000000)">
        <path d="M145,210 L15,210 C6.7,210 0,203.3 0,195 L0,15 C0,6.7 6.7,0 15,0 L110,0 L160,50 L160,195 C160,203.3 153.3,210 145,210 Z" id="Path" fill="#4074D1"></path>
        <polygon id="Path" fill="#8FB0EA" points="160 50 110 50 110 0"></polygon>
        <polygon id="Path" fill="#40639E" points="110 50 160 100 160 50"></polygon>
        <path d="M69.6514286,160.062857 L69.6514286,154.645714 L64.2,154.645714 C60.7257143,154.645714 58.4342857,154.142857 57.3257143,153.137143 C56.2171429,152.131429 55.6628571,150.92 55.6628571,149.502857 C55.6628571,148.451429 55.8914286,146.828571 56.3485714,144.634286 L56.3485714,144.634286 L57.24,140.622857 C57.72,138.474286 57.96,136.737143 57.96,135.411429 C57.96,133.902857 57.7028571,132.565714 57.1885714,131.4 C56.6742857,130.234286 55.9085714,129.102857 54.8914286,128.005714 C53.8742857,126.908571 52.28,125.788571 50.1085714,124.645714 C52.28,123.502857 53.8742857,122.377143 54.8914286,121.268571 C55.9085714,120.16 56.6742857,119.028571 57.1885714,117.874286 C57.7028571,116.72 57.96,115.388571 57.96,113.88 C57.96,112.554286 57.72,110.805714 57.24,108.634286 L57.24,108.634286 L56.3485714,104.622857 C55.8914286,102.451429 55.6628571,100.851429 55.6628571,99.8228571 C55.6628571,98.36 56.2228571,97.1314286 57.3428571,96.1371429 C58.4628571,95.1428571 60.7485714,94.6457143 64.2,94.6457143 L64.2,94.6457143 L69.6514286,94.6457143 L69.6514286,89.16 L64.1314286,89.16 C57.7085714,89.16 53.5714286,90.2 51.72,92.28 C49.8685714,94.36 48.9428571,96.6914286 48.9428571,99.2742857 C48.9428571,100.645714 49.1142857,102.142857 49.4571429,103.765714 L49.4571429,103.765714 L50.1085714,106.577143 L50.6914286,109.628571 L51.1371429,111.445714 C51.2971429,112.245714 51.3771429,113.068571 51.3771429,113.914286 C51.3771429,116.2 50.6342857,118.102857 49.1485714,119.622857 C47.6628571,121.142857 45.0914286,121.902857 41.4342857,121.902857 L41.4342857,121.902857 L38.28,121.902857 L38.28,127.354286 L41.4342857,127.354286 C45.1371429,127.354286 47.72,128.125714 49.1828571,129.668571 C50.6457143,131.211429 51.3771429,133.08 51.3771429,135.274286 C51.3771429,136.074286 51.2971429,136.908571 51.1371429,137.777143 L51.1371429,137.777143 L50.6914286,139.662857 L50.1085714,142.714286 L49.4571429,145.525714 C49.1142857,147.125714 48.9428571,148.611429 48.9428571,149.982857 C48.9428571,152.588571 49.8685714,154.92 51.72,156.977143 C53.5714286,159.034286 57.7085714,160.062857 64.1314286,160.062857 L64.1314286,160.062857 L69.6514286,160.062857 Z M96.8971429,160.062857 C103.32,160.062857 107.462857,159.04 109.325714,156.994286 C111.188571,154.948571 112.12,152.622857 112.12,150.017143 C112.12,148.645714 111.937143,147.148571 111.571429,145.525714 L111.571429,145.525714 L110.92,142.714286 L110.337143,139.662857 L109.925714,137.777143 C109.742857,136.977143 109.651429,136.177143 109.651429,135.377143 C109.651429,133.091429 110.4,131.182857 111.897143,129.651429 C113.394286,128.12 115.971429,127.354286 119.628571,127.354286 L119.628571,127.354286 L122.748571,127.354286 L122.748571,121.902857 L119.628571,121.902857 C115.925714,121.902857 113.337143,121.131429 111.862857,119.588571 C110.388571,118.045714 109.651429,116.188571 109.651429,114.017143 C109.651429,113.194286 109.742857,112.337143 109.925714,111.445714 L109.925714,111.445714 L110.337143,109.628571 L110.92,106.577143 L111.571429,103.765714 C111.937143,102.165714 112.12,100.668571 112.12,99.2742857 C112.12,96.6914286 111.188571,94.36 109.325714,92.28 C107.462857,90.2 103.32,89.16 96.8971429,89.16 L96.8971429,89.16 L91.3771429,89.16 L91.3771429,94.6457143 L96.8285714,94.6457143 C100.302857,94.6457143 102.594286,95.1428571 103.702857,96.1371429 C104.811429,97.1314286 105.365714,98.3485714 105.365714,99.7885714 C105.365714,100.84 105.137143,102.451429 104.68,104.622857 L104.68,104.622857 L103.788571,108.634286 C103.354286,110.805714 103.137143,112.554286 103.137143,113.88 C103.137143,115.388571 103.382857,116.72 103.874286,117.874286 C104.365714,119.028571 105.12,120.16 106.137143,121.268571 C107.154286,122.377143 108.748571,123.502857 110.92,124.645714 C108.748571,125.788571 107.154286,126.908571 106.137143,128.005714 C105.12,129.102857 104.365714,130.234286 103.874286,131.4 C103.382857,132.565714 103.137143,133.902857 103.137143,135.411429 C103.137143,136.737143 103.354286,138.474286 103.788571,140.622857 L103.788571,140.622857 L104.68,144.634286 C105.137143,146.828571 105.365714,148.44 105.365714,149.468571 C105.365714,150.908571 104.811429,152.131429 103.702857,153.137143 C102.594286,154.142857 100.302857,154.645714 96.8285714,154.645714 L96.8285714,154.645714 L91.3771429,154.645714 L91.3771429,160.062857 L96.8971429,160.062857 Z" id="{}" fill="#FFFFFF"></path>
      </g>
    </g>
  </g>
</svg>

<svg width="160" height="210" xmlns="http://www.w3.org/2000/svg"><g fill-rule="nonzero" fill="none"><path d="M145 210H15c-8.3 0-15-6.7-15-15V15C0 6.7 6.7 0 15 0h95l50 50v145c0 8.3-6.7 15-15 15Z" fill="#4074D1"/><path fill="#8FB0EA" d="M160 50h-50V0z"/><path fill="#40639E" d="m110 50 50 50V50z"/><path d="M69.651 160.063v-5.417H64.2c-3.474 0-5.766-.503-6.874-1.509-1.109-1.006-1.663-2.217-1.663-3.634 0-1.052.228-2.674.686-4.869l.891-4.011c.48-2.149.72-3.886.72-5.212 0-1.508-.257-2.845-.771-4.011-.515-1.166-1.28-2.297-2.298-3.394-1.017-1.097-2.611-2.217-4.782-3.36 2.171-1.143 3.765-2.269 4.782-3.377 1.018-1.109 1.783-2.24 2.298-3.395.514-1.154.771-2.485.771-3.994 0-1.326-.24-3.074-.72-5.246l-.891-4.011c-.458-2.172-.686-3.772-.686-4.8 0-1.463.56-2.692 1.68-3.686 1.12-.994 3.406-1.491 6.857-1.491h5.451V89.16h-5.52c-6.422 0-10.56 1.04-12.411 3.12-1.851 2.08-2.777 4.411-2.777 6.994 0 1.372.171 2.869.514 4.492l.652 2.811.582 3.052.446 1.817c.16.8.24 1.623.24 2.468 0 2.286-.743 4.189-2.228 5.709-1.486 1.52-4.058 2.28-7.715 2.28H38.28v5.451h3.154c3.703 0 6.286.772 7.749 2.315 1.463 1.542 2.194 3.411 2.194 5.605 0 .8-.08 1.635-.24 2.503l-.446 1.886-.582 3.051-.652 2.812c-.343 1.6-.514 3.085-.514 4.457 0 2.606.926 4.937 2.777 6.994 1.851 2.057 5.989 3.086 12.411 3.086h5.52Zm27.246 0c6.423 0 10.566-1.023 12.429-3.069 1.863-2.045 2.794-4.371 2.794-6.977 0-1.371-.183-2.868-.549-4.491l-.651-2.812-.583-3.051-.411-1.886c-.183-.8-.275-1.6-.275-2.4 0-2.286.749-4.194 2.246-5.726 1.497-1.531 4.074-2.297 7.732-2.297h3.12v-5.451h-3.12c-3.703 0-6.292-.772-7.766-2.314-1.474-1.543-2.212-3.4-2.212-5.572 0-.823.092-1.68.275-2.571l.411-1.817.583-3.052.651-2.811c.366-1.6.549-3.097.549-4.492 0-2.583-.931-4.914-2.794-6.994s-6.006-3.12-12.429-3.12h-5.52v5.486h5.452c3.474 0 5.765.497 6.874 1.491 1.108.994 1.663 2.212 1.663 3.652 0 1.051-.229 2.662-.686 4.834l-.891 4.011c-.435 2.172-.652 3.92-.652 5.246 0 1.509.246 2.84.737 3.994.492 1.155 1.246 2.286 2.263 3.395 1.017 1.108 2.612 2.234 4.783 3.377-2.171 1.143-3.766 2.263-4.783 3.36-1.017 1.097-1.771 2.228-2.263 3.394-.491 1.166-.737 2.503-.737 4.011 0 1.326.217 3.063.652 5.212l.891 4.011c.457 2.195.686 3.806.686 4.835 0 1.44-.555 2.662-1.663 3.668-1.109 1.006-3.4 1.509-6.874 1.509h-5.452v5.417h5.52Z" fill="#FFF"/></g></svg>
